build/Karasa-Jaga/scalable/apps/preferences-desktop-font-symbolic.svg

<svg height="16" width="16" xmlns="http://www.w3.org/2000/svg"><g fill="#bebebe" transform="translate(-.118644 -.084746)"><path d="m3.7991772 1.173578h-.7569082q-1.177413 0-1.5839008.3223868-.3924709.3223869-.64477366 1.4717661h-.33640368l.08410094-2.38285938h7.9054864l.084101 2.38285938h-.3364037q-.2382859-1.1633961-.6447737-1.4717661-.392471-.3223868-1.5839007-.3223868h-.7569082v7.1625948q0 .7709249.2382859.995194.2382859.2242693 1.1073288.2663203v.266319h-4.0929115v-.266319q.8690429-.056065 1.093312-.2803371.2242691-.2382858.2242691-1.1353622z"/><path d="m7.2851424 3.9491391h-.7569083q-1.1774129 0-1.5839005.3223869-.3924711.3223869-.6447738 1.4717661h-.3364036l.084101-2.3828594h7.9054868l.0841 2.3828594h-.336402q-.238286-1.163396-.644774-1.4717661-.392471-.3223869-1.5839017-.3223869h-.7569082v7.1625949q0 .770925.2382858.995194.2382861.224269 1.1073291.26632v.266319h-4.0929117v-.266319q.8690428-.05606 1.0933119-.280337.2242692-.238286.2242692-1.135362z"/><path d="m14.820972 12.346735h-.322387q-.126151-.855026-.406488-1.093312-.280336-.252303-1.135362-.252303h-2.032439v2.915499q0 .855027.224269 1.107329.238286.252303 1.051262.294354v.266319h-3.9247092v-.266319q.7989587-.05607 1.009211-.294354.2102523-.252302.2102523-1.121346v-6.0692834q0-.7428914-.2242691-.9671606-.2242691-.2382859-.9951942-.2943532v-.2663196h7.4429302l.04205 2.0044052h-.350419q-.182219-.9391268-.560674-1.2054464-.378453-.2663196-1.569883-.2663196h-1.906287q-.280337 0-.364438.098118-.0841.084101-.0841.3784541v3.1117345h2.032439q.841009 0 1.121345-.238286.294354-.2523031.420505-1.0933123h.322387z"/></g></svg>

<?xml version="1.0" encoding="UTF-8" standalone="no"?>
<!-- Created with Inkscape (http://www.inkscape.org/) -->

<svg
   xmlns:dc="http://purl.org/dc/elements/1.1/"
   xmlns:cc="http://creativecommons.org/ns#"
   xmlns:rdf="http://www.w3.org/1999/02/22-rdf-syntax-ns#"
   xmlns:svg="http://www.w3.org/2000/svg"
   xmlns="http://www.w3.org/2000/svg"
   xmlns:sodipodi="http://sodipodi.sourceforge.net/DTD/sodipodi-0.dtd"
   xmlns:inkscape="http://www.inkscape.org/namespaces/inkscape"
   id="svg7384"
   height="16"
   width="16"
   version="1.1"
   sodipodi:docname="preferences-desktop-font-symbolic.svg"
   inkscape:version="0.92.2 (unknown)">
  <defs
     id="defs10" />
  <sodipodi:namedview
     pagecolor="#ffffff"
     bordercolor="#666666"
     borderopacity="1"
     objecttolerance="10"
     gridtolerance="10"
     guidetolerance="10"
     inkscape:pageopacity="0"
     inkscape:pageshadow="2"
     inkscape:window-width="1366"
     inkscape:window-height="716"
     id="namedview8"
     showgrid="false"
     inkscape:zoom="14.75"
     inkscape:cx="13.777352"
     inkscape:cy="11.881881"
     inkscape:window-x="0"
     inkscape:window-y="27"
     inkscape:window-maximized="1"
     inkscape:current-layer="svg7384" />
  <metadata
     id="metadata90">
    <rdf:RDF>
      <cc:Work
         rdf:about="">
        <dc:format>image/svg+xml</dc:format>
        <dc:type
           rdf:resource="http://purl.org/dc/dcmitype/StillImage" />
        <dc:title>Gnome Symbolic Icon Theme</dc:title>
      </cc:Work>
    </rdf:RDF>
  </metadata>
  <title
     id="title9167">Gnome Symbolic Icon Theme</title>
  <g
     id="g863"
     transform="translate(-0.11864443,-0.08474626)">
    <path
       d="M 3.7991772,1.173578 H 3.042269 q -1.177413,0 -1.5839008,0.3223868 Q 1.0658973,1.8183517 0.81359454,2.9677309 H 0.47719086 L 0.5612918,0.58487152 H 8.4667782 L 8.5508792,2.9677309 H 8.2144755 Q 7.9761896,1.8043348 7.5697018,1.4959648 7.1772308,1.173578 5.9858011,1.173578 H 5.2288929 v 7.1625948 q 0,0.7709249 0.2382859,0.995194 0.2382859,0.2242693 1.1073288,0.2663203 v 0.266319 H 2.4815961 V 9.5976871 Q 3.350639,9.5416221 3.5749081,9.31735 3.7991772,9.0790642 3.7991772,8.1819878 Z"
       style="font-style:normal;font-variant:normal;font-weight:normal;font-stretch:normal;font-size:medium;line-height:1.25;font-family:FreeSerif;-inkscape-font-specification:FreeSerif;letter-spacing:0px;word-spacing:0px;fill:#bebebe;fill-opacity:1;stroke:none;stroke-width:0.3504205"
       id="path829"
       inkscape:connector-curvature="0" />
    <path
       d="M 7.2851424,3.9491391 H 6.5282341 q -1.1774129,0 -1.5839005,0.3223869 Q 4.5518625,4.5939129 4.2995598,5.7432921 H 3.9631562 l 0.084101,-2.3828594 h 7.9054868 l 0.0841,2.3828594 H 11.700442 Q 11.462156,4.5798961 11.055668,4.271526 10.663197,3.9491391 9.4717663,3.9491391 H 8.7148581 v 7.1625949 q 0,0.770925 0.2382858,0.995194 0.2382861,0.224269 1.1073291,0.26632 v 0.266319 H 5.9675613 v -0.266319 q 0.8690428,-0.05606 1.0933119,-0.280337 0.2242692,-0.238286 0.2242692,-1.135362 z"
       style="font-style:normal;font-variant:normal;font-weight:normal;font-stretch:normal;font-size:medium;line-height:1.25;font-family:FreeSerif;-inkscape-font-specification:FreeSerif;letter-spacing:0px;word-spacing:0px;fill:#bebebe;fill-opacity:1;stroke:none;stroke-width:0.3504205"
       id="path832"
       inkscape:connector-curvature="0" />
    <path
       d="M 14.820972,12.346735 H 14.498585 Q 14.372434,11.491709 14.092097,11.253423 13.811761,11.00112 12.956735,11.00112 h -2.032439 v 2.915499 q 0,0.855027 0.224269,1.107329 0.238286,0.252303 1.051262,0.294354 v 0.266319 H 8.2751178 v -0.266319 q 0.7989587,-0.05607 1.009211,-0.294354 0.2102523,-0.252302 0.2102523,-1.121346 V 7.8333186 q 0,-0.7428914 -0.2242691,-0.9671606 Q 9.0460429,6.6278721 8.2751178,6.5718048 V 6.3054852 h 7.4429302 l 0.04205,2.0044052 H 15.409679 Q 15.22746,7.3707636 14.849005,7.104444 14.470552,6.8381244 13.279122,6.8381244 h -1.906287 q -0.280337,0 -0.364438,0.098118 -0.0841,0.084101 -0.0841,0.3784541 v 3.1117345 h 2.032439 q 0.841009,0 1.121345,-0.238286 0.294354,-0.2523031 0.420505,-1.0933123 h 0.322387 z"
       style="font-style:normal;font-variant:normal;font-weight:normal;font-stretch:normal;font-size:medium;line-height:1.25;font-family:FreeSerif;-inkscape-font-specification:FreeSerif;letter-spacing:0px;word-spacing:0px;fill:#bebebe;fill-opacity:1;stroke:none;stroke-width:0.3504205"
       id="path835"
       inkscape:connector-curvature="0" />
  </g>
</svg>
